img/main/castom__chackbox.svg

<svg width="29" height="28" viewBox="0 0 29 28" fill="none" xmlns="http://www.w3.org/2000/svg">
<g id="2">
<g id="+">
<g id="Checkbox (Background)">
<rect x="0.993652" width="28" height="28" rx="4" fill="#FFD600"/>
<rect x="0.993652" width="28" height="28" rx="4" fill="#FFD600"/>
</g>
<path id="Vector" d="M22.6124 9.31141C23.0969 9.74775 23.1231 10.4804 22.6709 10.9479L14.2709 19.6321C13.8322 20.0857 13.1009 20.125 12.6127 19.7212L8.41272 16.2476C7.90953 15.8314 7.85126 15.1004 8.28257 14.6149C8.71387 14.1293 9.47143 14.0731 9.97462 14.4893L13.3013 17.2406L20.9164 9.36785C21.3686 8.90035 22.1279 8.87508 22.6124 9.31141Z" fill="#222222"/>
</g>
</g>
</svg>

<svg xmlns="http://www.w3.org/2000/svg" width="29" height="28" fill="none"><g fill="#FFD600"><rect width="28" height="28" x=".994" rx="4"/><rect width="28" height="28" x=".994" rx="4"/></g><path fill="#222" d="M22.612 9.311a1.13 1.13 0 0 1 .059 1.637l-8.4 8.684a1.231 1.231 0 0 1-1.658.09l-4.2-3.474a1.13 1.13 0 0 1-.13-1.633 1.23 1.23 0 0 1 1.692-.126l3.326 2.752 7.615-7.873a1.23 1.23 0 0 1 1.696-.057Z"/></svg>
